X:1
T:Title
%%score 1 { ( 2 3 ) | ( 4 5 6 ) }
L:1/8
Q:1/4=92
M:4/4
K:F
V:1 treble nm="Voice"
V:2 treble nm="Piano"
V:3 treble 
V:4 bass 
V:5 bass 
V:6 bass 
V:1
"^Andante con moto" z8 | z4 z2!p! A,2 | (D3 D E2) F2 | (D2 E2 F2) A2 | (d3 c B2) A2 | G2 z2 z2 G2 | %6
!<(! (c3 B A2) B2 | c2 G2!<)!!mf! F2!>(! (A2-!>)! | A2!<(! GF G2) A2!<)! | E4 z2!p! A,2 | %10
 D2 D2 E2 F2 |!<(! (D2 E2!<)!!>(! F2) (A2!>)! | d3 c B2) A2 | G2 z2 z2 G2 |!<(! (c3 B A2) B2!<)! | %15
 c2 G2 F2!mf! A2 |!<(! (G3 F G2) A2!<)! | E4 z4 |!f! A4 B3 B | A4 z2 A2 | (G2 A2 B2) G2 | %21
 A2 z2 z2!p! C2 |!<(! (F4!<)!!>(! G2)!>)! C2 |!<(! (F2 A2!<)!!>(! c2)!>)! C2 | %24
!<(! (F4!<)!!>(! G2)!>)! C2 | F2 z2 z4 |!f! A4 B3 B | A4 z2 A2 | (G2 A2 B2) G2 | A2 z2 z2!p! C2 | %30
!<(! (F4!<)!!>(! G2)!>)! C2 |!<(! (F2 A2!<)!!>(! c2)!>)!!mf! C2 |!<(! (F4!<)!!>(! G2)!>)! C2 | %33
 F2 z2 z4 | z8 | !fermata!z4 !fermata!z4 |] %36
V:2
"^Andante" z8 | x4 [A,A]4 | x4 [A,A]4 | x4 [A,A]4 | x4 [Dd]4 | x4 [B,B]4 | x4 [A,A]4 | x4 [A,A]4 | %8
 x4 [^G,^G]4 | x4 [^C^c]4 | x4 [A,A]4 | x4 [A,A]4 | x4 [Dd]4 | x4 [B,B]4 | x4 [A,A]4 | x4 [A,A]4 | %16
 x4 [^G,^G]4 | x4 [^C^c]4 |!f! [CFAc]4 [CEGBc]4 | [CFAc]4 x2 [CFA]2 | %20
 [B,CG]2 [CFA]2 [B,GB]2 [G,CE]2 | [A,FA]2 x2 x2 C2 | (F4 G2) C2 | (F2 A2 c2) C2 | (F4 G2) C2 | %25
 [A,F]4 z4 |!f! [CFAc]4 [CEGBc]4 | [CFAc]4 x2 [CFA]2 | [B,CG]2 [CFA]2 [B,GB]2 [G,CE]2 | %29
 [A,FA]2 x2 x2 C2 | (F4 G2) C2 | (F2 A2 c2) C2 | (F4 G2) C2 | [A,F]4 z4 |!p! [Cc]4 [Cc]4 | %35
 !fermata![CFAc]8 |] %36
V:3
 x4 [A,A]4 | x8 | x8 | x8 | x8 | x8 | x8 | x8 | x8 | x8 | x8 | x8 | x8 | x8 | x8 | x8 | x8 | x8 | %18
 x8 | x8 | x8 | x8 | x8 | x8 | x8 | x8 | x8 | x8 | x8 | x8 | x8 | x8 | x8 | x8 | C2 B2 B2 E2 | %35
 x8 |] %36
V:4
 [D,,,D,,]8 | [D,,,D,,]8 | [D,,,D,,]8 | [D,,,D,,]8 | [B,,,,B,,,]8 | [E,,,E,,]8 | [C,,,C,,]8 | %7
 [F,,,F,,]8 | [E,,,E,,]8 | [A,,,A,,]8 | [D,,,D,,]8 | [D,,,D,,]8 | [B,,,,B,,,]8 | [E,,,E,,]8 | %14
 [C,,,C,,]8 | [F,,,F,,]8 | [E,,,E,,]8 | [A,,,A,,]8 | [F,,,C,,F,,]4 [C,,,C,,]4 | %19
 [F,,,C,,F,,]4 z2 [F,,C,F,]2 | [E,,C,]2 [F,,C,]2 [E,,C,]2 [C,,C,]2 | [F,,C,]2 C,2 F,2 [B,,G,]2 | %22
 A,2 C,2 E,2 [C,G,]2 | (A,2 F,2 C,2) [B,,G,]2 | (A,2 C,2) (E,2 C,2) | [F,,C,]4 z4 | %26
 [F,,,C,,F,,]4 [C,,,C,,]4 | [F,,,C,,F,,]4 z2 [F,,C,F,]2 | [E,,C,]2 [F,,C,]2 [E,,C,]2 [C,,C,]2 | %29
 [F,,C,]2 C,2 F,2 [B,,G,]2 | (A,2 C,2) (E,2 [C,G,]2) | (A,2 F,2) (C,2 [B,,G,]2) | %32
 (A,2 C,2) (E,2 C,2) | [F,,C,]4 z4 | [C,,G,,]4 [C,,G,,]4 | !fermata![F,,,F,,]8 |] %36
V:5
 x8 | x8 | x8 | x8 | x8 | x8 | x8 | x8 | x8 | x8 | x8 | x8 | x8 | x8 | x8 | x8 | x8 | x8 | x8 | %19
 x8 | x8 | x8 | x8 | x8 | x8 | x8 | x8 | x8 | x8 | x8 | x8 | x8 | x8 | x8 | E,4 E,4 | x8 |] %36
V:6
 x8 | x8 | x8 | x8 | x8 | x8 | x8 | x8 | x8 | x8 | x8 | x8 | x8 | x8 | x8 | x8 | x8 | x8 | x8 | %19
 x8 | x8 | x8 | x8 | x8 | x8 | x8 | x8 | x8 | x8 | x8 | x8 | x8 | x8 | x8 | C,2 E,2 G,2 C,2 | x8 |] %36

